X: 1
T: Emmet's Hedgehog
L: 1/8
M: 6/8
K: Em
"Am"A2e edB | ~A3 AGE | ~A3 AGE | "G"GBG DEG | 
"Am"A2e edB | ~A3 AGE | "G"GBG DEG |1 BAG "Am"A (3EFG |2 BAG "Am"A (3Bcd ||
"Am"e2a ged | "C"c"G"B3 AG | ~B3 BAG | g2f "C"edB | 
"Am"e2a ged | "C"c"G"B3 AG | Bge dBA |1 EFG "Am"A (3Bcd |2 EFG "Am"A (3EFG ||

